X:1
T:St. Paul, 87.87.887
T:Wittenberg, Germany, 1524
T:St. Paul, 87.87.887
T:Public Domain
C:Wittenberg, Germany, 1524
Z:Public Domain
%%score ( 1 2 ) ( 3 4 )
L:1/8
M:4/4
K:D
V:1 treble 
V:2 treble 
V:3 bass 
V:4 bass 
V:1
 x8 |: [FA]2 [EA]2 [EA]2 [FA]2 | [=C=c]2 [DB]2 DC [B,G]2- | [B,G]4 [EA]2 [DF]2 | %4
 D2 [DF]2 [EG]2 [EA]2 | ED [CA]6 :| [EA]2 F2 z c [GB]2 | [Gc]2 [Fd]2 ED [CA]2- | [CA]4 [EA]2 D2 x | %9
 z c [DB]2 [DF]2 CD | [EG]2 [CF]6 | [B,D]2 [B,E]2 [EG]2 [DF]2 | [CE]2 [B,D]2 [CE]2 D2- | D6 z2 |] %14
V:2
 x8 |: x8 | x4 A2 x2 | x8 | D2 x6 | B2 x6 :| x2 d3 A2 x | x4 B2 x2 | x6 d3 | (F2 x3 A2) x | x8 | %11
 x8 | x6 D2- | D6 x2 |] %14
V:3
 x8 |: [D,D]2 [C,E]2 [A,,C]2 [D,D]2 | [E,G,][F,A,] G,2 [D,F,]2 [E,G,]2- | [E,G,]4 [C,E,]2 [D,F,]2 | %4
 [F,A,]2 [B,,B,]2 E,D, [C,A,]2 | [E,^G,]2 [A,,A,]6 :| [C,A,]2 [D,A,]2 [F,D]2 [G,D]2 | %7
 [E,G,]2 [D,A,]2 [E,^G,]2 [A,,A,]2- | [A,,A,]4 [C,A,]2 [B,,B,]2 x | %9
 [F,A,]2 [G,B,]2 [B,,B,]2 [F,A,]2 | [E,B,]2 [F,^A,]6 | B,,^A,, [G,,G,]2 [E,,B,]2 F,,G,, | %12
 [A,,A,]2 [B,,F,]2 A,G, [D,F,]2- | [D,F,]6 z2 |] %14
V:4
 x8 |: x8 | x2 G,2 x4 | x8 | x4 B,2 x2 | x8 :| x8 | x8 | x9 | x8 | x8 | F,2 x3 =A,2 x | %12
 x4 A,,2 x2 | x8 |] %14

